src/assets/icons/trending_up_icon.svg

<svg fill="none" height="24" viewBox="0 0 24 24" width="24" xmlns="http://www.w3.org/2000/svg"><path d="m21.0869 5c.0387.00002.0768.00233.1142.00684.2026-.02341.4136.03325.5791.17773.1953.17047.2802.41986.25.65918.004.03496.0069.07044.0069.10645v5.7998c0 .4141-.336.7498-.75.75-.4141-.0001-.75-.3359-.75-.75v-4.00195l-6.836 7.83205c-.3647.4175-1.0082.435-1.3955.0381l-2.70797-2.7754-6.29297 6.9121c-.27884.3062-.7533.3286-1.05957.0498-.3062-.2789-.32855-.7533-.0498-1.0596l6.68652-7.3428.07227-.0712c.34934-.3109.87656-.3203 1.23632-.0215l.0742.0683 2.6983 2.7657 6.6738-7.6436h-4.2031c-.4142 0-.75-.33579-.75-.75s.3358-.75.75-.75z" fill="#000"/></svg>

<svg width="24" height="24" viewBox="0 0 24 24" fill="none" xmlns="http://www.w3.org/2000/svg">
<path d="M21.0869 5C21.1256 5.00002 21.1637 5.00233 21.2011 5.00684C21.4037 4.98343 21.6147 5.04009 21.7802 5.18457C21.9755 5.35504 22.0604 5.60443 22.0302 5.84375C22.0342 5.87871 22.0371 5.91419 22.0371 5.9502V11.75C22.0371 12.1641 21.7011 12.4998 21.2871 12.5C20.873 12.4999 20.5371 12.1641 20.5371 11.75V7.74805L13.7011 15.5801C13.3364 15.9976 12.6929 16.0151 12.3056 15.6182L9.59763 12.8428L3.30466 19.7549C3.02582 20.0611 2.55136 20.0835 2.24509 19.8047C1.93889 19.5258 1.91654 19.0514 2.19529 18.7451L8.88181 11.4023L8.95408 11.3311C9.30342 11.0202 9.83064 11.0108 10.1904 11.3096L10.2646 11.3779L12.9629 14.1436L19.6367 6.5H15.4336C15.0194 6.5 14.6836 6.16421 14.6836 5.75C14.6836 5.33579 15.0194 5 15.4336 5H21.0869Z" fill="black"/>
</svg>
